src/assets/icons/beans-solid-black.svg

<svg width="30" height="30" viewBox="0 0 30 30" fill="none" xmlns="http://www.w3.org/2000/svg">
<g clip-path="url(#clip0_4_251)">
<path d="M5.38845 26.5504C4.03449 24.1621 4.95554 20.4168 7.75693 17.6151C10.9384 14.4341 15.337 13.6759 17.5827 15.9214C17.5851 15.9242 17.5879 15.9274 17.5913 15.9304C17.1418 17.2383 15.7102 20.0203 11.42 21.5245C7.48942 22.9031 5.97353 25.0955 5.38845 26.5504ZM16.2605 19.5906C15.2344 20.6175 13.776 21.6253 11.7102 22.3503C7.51766 23.8203 6.34633 26.2275 6.01945 27.3931C6.03527 27.4089 6.04806 27.4255 6.06292 27.4401C8.30844 29.6857 12.7076 28.9273 15.8882 25.7464C18.7188 22.9159 19.6292 19.1225 18.2142 16.7383C17.8736 17.5324 17.2813 18.5697 16.2605 19.5906ZM7.58465 9.2452C12.1138 9.6421 14.564 7.69641 15.512 6.69018C15.5103 6.68618 15.5092 6.68167 15.5079 6.67805C14.387 3.70713 10.0663 2.58599 5.85745 4.17405C2.15076 5.57274 -0.231913 8.60592 0.0179255 11.3398C1.15059 10.2555 3.43514 8.88223 7.58465 9.2452ZM9.9169 14.9334C13.6625 13.5205 16.0541 10.4387 15.7471 7.6831C15.1096 8.26655 14.1423 8.96808 12.7918 9.47781C11.434 9.99005 9.68968 10.3081 7.50894 10.1171C3.08342 9.72905 1.02379 11.4401 0.245287 12.3682C0.253198 12.3888 0.258743 12.4091 0.265916 12.4285C1.38705 15.4002 5.70787 16.5218 9.9169 14.9334ZM23.0248 8.73791C25.7422 5.09207 25.3735 1.9848 25.0151 0.649692C25.0109 0.649248 25.0069 0.647695 25.003 0.646808C21.8859 0.0399204 18.6621 3.12782 17.8023 7.54313C17.0451 11.4328 18.3749 15.0528 20.8322 16.2767C20.5046 14.7432 20.5365 12.0782 23.0248 8.73791ZM25.9836 0.971325C26.1454 1.82058 26.2341 3.0121 25.9582 4.42862C25.6811 5.85356 25.0348 7.50468 23.7271 9.26028C21.0722 12.8223 21.4461 15.4731 21.8269 16.623C21.8487 16.6275 21.869 16.6331 21.8891 16.6375C25.0065 17.2444 28.2299 14.157 29.0896 9.74125C29.8552 5.81186 28.4892 2.15715 25.9836 0.971325Z" fill="black"/>
</g>
<defs>
<clipPath id="clip0_4_251">
<rect width="29.302" height="29.302" fill="white"/>
</clipPath>
</defs>
</svg>

<svg width="30" height="30" fill="none" xmlns="http://www.w3.org/2000/svg"><g clip-path="url(#a)"><path d="M5.388 26.55c-1.354-2.388-.432-6.133 2.369-8.935 3.181-3.18 7.58-3.94 9.826-1.694a.088.088 0 0 0 .008.01c-.45 1.307-1.88 4.09-6.171 5.594-3.93 1.378-5.446 3.57-6.032 5.025zm10.873-6.96c-1.027 1.027-2.485 2.035-4.55 2.76-4.193 1.47-5.365 3.877-5.692 5.043l.044.047c2.245 2.246 6.645 1.487 9.825-1.694 2.83-2.83 3.741-6.623 2.326-9.008a9.143 9.143 0 0 1-1.953 2.853zM7.585 9.246c4.529.397 6.979-1.549 7.927-2.555l-.004-.012c-1.121-2.97-5.442-4.092-9.65-2.504C2.15 5.573-.233 8.606.017 11.34c1.133-1.085 3.417-2.458 7.567-2.095zm2.332 5.688c3.745-1.412 6.137-4.494 5.83-7.25a9.143 9.143 0 0 1-2.955 1.795c-1.358.512-3.102.83-5.283.64-4.426-.389-6.485 1.322-7.264 2.25.008.02.014.041.02.06 1.122 2.972 5.443 4.094 9.652 2.505zm13.108-6.195c2.717-3.646 2.349-6.753 1.99-8.088l-.012-.003c-3.117-.607-6.34 2.48-7.2 6.896-.758 3.89.572 7.51 3.03 8.734-.328-1.534-.296-4.199 2.192-7.54zM25.984.97c.161.85.25 2.041-.026 3.458-.277 1.425-.923 3.076-2.23 4.831-2.656 3.562-2.282 6.213-1.901 7.363l.062.014c3.117.607 6.34-2.48 7.2-6.896.766-3.93-.6-7.584-3.105-8.77z" fill="#000"/></g><defs><clipPath id="a"><path fill="#fff" d="M0 0h29.302v29.302H0z"/></clipPath></defs></svg>
